exported-svg/bell.svg

<svg height="24" viewBox="0 0 24 24" width="24" xmlns="http://www.w3.org/2000/svg"><path d="m21.5 17v1h-20v-1c1.38071184 0 2.5-1.1192882 2.5-2.5v-5c0-4.14213565 3.35786438-7.5 7.5-7.5 4.1421356 0 7.5 3.35786435 7.5 7.5v5c0 1.3807118 1.1192882 2.5 2.5 2.5zm-3.5-2.5v-5c0-3.5898509-2.9101491-6.5-6.5-6.5-3.58985087 0-6.5 2.9101491-6.5 6.5v5c0 .9793441-.40223363 1.8647415-1.05050867 2.5h15.10101737c-.6482751-.6352585-1.0505087-1.5206559-1.0505087-2.5zm-16.5 3.5c-.66666667 0-.66666667-1 0-1h2.44949133c-.63126856.6185935-1.49583882 1-2.44949133 1zm20-1c.6666667 0 .6666667 1 0 1-.9536525 0-1.8182228-.3814065-2.4494913-1zm-8.27 3.9999999c.3853552 0 .6258604.4175536.4325.7508859-.4472472.7710055-1.2711642 1.2455704-2.1625 1.2455704s-1.7152528-.4745649-2.1625-1.2455704c-.19336042-.3333323.04714476-.7508859.4325-.7508859z"/></svg>

<?xml version="1.0" encoding="UTF-8"?>
<svg width="24px" height="24px" viewBox="0 0 24 24" version="1.1" xmlns="http://www.w3.org/2000/svg" xmlns:xlink="http://www.w3.org/1999/xlink">
    <!-- Generator: Sketch 55.2 (78181) - https://sketchapp.com -->
    <title>bell</title>
    <desc>Created with Sketch.</desc>
    <g id="bell" stroke="none" stroke-width="1" fill="none" fill-rule="evenodd">
        <path d="M21.5,17 L21.5,18 L1.5,18 L1.5,17 C2.88071184,17 4,15.8807118 4,14.5 L4,9.5 C4,5.35786435 7.35786438,2 11.5,2 C15.6421356,2 19,5.35786435 19,9.5 L19,14.5 C19,15.8807118 20.1192882,17 21.5,17 Z M18,14.5 L18,9.5 C18,5.9101491 15.0898509,3 11.5,3 C7.91014913,3 5,5.9101491 5,9.5 L5,14.5 C5,15.4793441 4.59776637,16.3647415 3.94949133,17 L19.0505087,17 C18.4022336,16.3647415 18,15.4793441 18,14.5 Z M1.5,18 C0.833333333,18 0.833333333,17 1.5,17 L3.94949133,17 C3.31822277,17.6185935 2.45365251,18 1.5,18 Z M21.5,17 C22.1666667,17 22.1666667,18 21.5,18 C20.5463475,18 19.6817772,17.6185935 19.0505087,17 L21.5,17 Z M13.23,20.9999999 C13.6153552,20.9999999 13.8558604,21.4175535 13.6625,21.7508858 C13.2152528,22.5218913 12.3913358,22.9964562 11.5,22.9964562 C10.6086642,22.9964562 9.7847472,22.5218913 9.3375,21.7508858 C9.14413958,21.4175535 9.38464476,20.9999999 9.77,20.9999999 L13.23,20.9999999 Z" id="Shape" fill="#000000" fill-rule="nonzero"></path>
    </g>
</svg>
